X:104
T:Babes in the Wood
T:Captain Maguire
R:polka
H:See also #18
Z:id:hn-polka-104
M:2/4
L:1/8
K:D
A/B/A/G/ FA|de f2|ga/g/ fe|df a2|A/B/A/G/ FA|de f2|ga/g/ fe|d2 d2:|
|:e>f ed|ce a2|e>f ef|ge c/B/A|e>f ed|ce a>f|ed cB|A2 A2:|

